X: 1
T: Over the Hills and Far Away
P: piffero primo a0847
O: arr Deirdre Sweeney
%R: reel
S: http://ancients.sudburymuster.org/mus/ssp/pdf/stkildaF.pdf
S: http://ancients.sudburymuster.org/mus/sng/pdf/overthehillsC0.pdf
Z: 2019 John Chambers <jc:trillian.mit.edu>
M: 2/4
L: 1/16
K: G
(3DEF |\
G2GF GABc | dg2e dBGB | A2AG ABcd | e2ed efgz |\
G2GF GABc |
dBge dBGB | A2AG AcBA | G2E2 E2 :: ef |\
gfge dBdf | gfge dBG2 |
ea2g e2 (3Bcd | ea2g edef |\
gfge dBdf | gfge dBGB | A2AG AcBA | G2E2 E2 :|
